X:214
T:Careless Love
Z:Jack Campin, http://www.campin.me.uk/
F:Jack Campin's Nine-Note Tunebook
% last edit 03-02-2013
M:C|
L:1/4
Q:1/2=80
K:F
A3 F|E C E G|F4-  |F4||\
A3 B|c c d c|G4-  |G4||
A3 B|c3   ^c|d2 B2|F4||\
A3 F|E C E G|F4-  |F4|]

